X:115
T:Off She Goes. JGi.115
M:6/8
L:1/8
Q:3/8=120
S:Joshua Gibbons MS,1823,Tealby,Lincs.
R:jig
O:Tealby,Lincolnshire
Z:VMP/R.Greig, 2009
K:C
E2GF2A|G>ABc3|E2GF2A|GECD3|E2GF2A|GABc2e|e2cf2e|dcBc3:|
|:egec2e|dfdB2d|egec2e|dcBc3|egec2e|dfdB2d|c2eg2e|dcBc3:|

